X:1
T:Pee Wee
C:Tony Williams
Z:Copyright © www.realbook.site
L:1/16
M:3/4
I:linebreak $
K:Fmin
V:1 treble nm=" " snm=" "
V:1
|:"Dbmaj7" C2B,2 C4 D4 |"Eb/Db" E2D2 E4 =E4 |"F/Db" F12- |"Dm7" F12 |"Amaj7#11/Eb" z12 | %5
"Bbmaj7#11/E" z12 ||$"Cbmaj7#11/Gb" D6 F3E3 | A,3B,3C3D3 |"Fmaj7/G" C12 |"E/G" F3G3A3B3- | %10
"Eb/F" B12 ||$"Cm/Db" G6 F2- (3F2G2A129/64 |"Gbmaj13#11" E12 |"Am7/G" z12 |"G13b9" F3G3A3B3 |$ %15
"Eb4" A6"Db/F" D6 |"Gbdim#7" C3B,3C3D3 |"Abm2/Db" E12 |"F/Db" F12 | z12 | z12 :| %21

